!!!COM: Chopin, Frederic
!!!CDT: 1810///-1849///
!!!OTL: Prelude in F-sharp Minor, Op. 28, No. 8
!!!OPS: Op. 28
!!!ONM: No. 8
!!!OMD: Molto agitato
!!!ODT: 1836///-1839///
!!!PDT: 1839///
!!!ENC: Craig Stuart Sapp
!!!END:	2008/01/15/
!!!AIN: piano
!!!EEV: 2008/01/15/
!!!ONB: Probably some enharmonic errors, etc. but I don't care
**kern	**dynam	**kern	**dynam	**kern	**dynam
*Ipiano	*Ipiano	*Ipiano	*Ipiano	*Ipiano	*Ipiano
*staff3	*staff3	*staff2	*staff2	*staff1	*staff1
*clefF4	*clefF4	*clefG2	*clefG2	*clefG2	*clefG2
*k[f#c#g#]	*k[f#c#g#]	*k[f#c#g#]	*k[f#c#g#]	*k[f#c#g#]	*k[f#c#g#]
*f#:	*f#:	*f#:	*f#:	*f#:	*f#:
*met(C)	*met(C)	*met(C)	*met(C)	*met(C)	*met(C)
*M4/4	*M4/4	*M4/4	*M4/4	*M4/4	*M4/4
*MM100	*MM100	*MM100	*MM100	*MM100	*MM100
=1-	=1-	=1-	=1-	=1-	=1-
(24A\LL	mf	8.c#\L	f	32c#/LLL	mf
.	.	.	.	32cc#/	.
24C#\	.	.	.	.	.
.	.	.	.	32g#/	.
24F#\J)	.	.	.	.	.
.	.	.	.	32b/	.
8FF#\J	.	.	.	32a/	.
.	.	.	.	32f#/	.
.	.	16d\Jk	.	32d/	.
.	.	.	.	32dd/JJJ	.
(24A\LL	.	8.c#\L	.	32c#/LLL	.
.	.	.	.	32cc#/	.
24C#\	.	.	.	.	.
.	.	.	.	32g#/	.
24F#\J)	.	.	.	.	.
.	.	.	.	32b/	.
8AA\J	.	.	.	32a/	.
.	.	.	.	32g#/	.
.	.	16f#\Jk	.	32f#/	.
.	.	.	.	32ff#/JJJ	.
(24d\LL	.	8.f#\L	.	32f#/LLL	.
.	.	.	.	32ff#/	.
24G#\	.	.	.	.	.
.	.	.	.	32a#/	.
24B\J	.	.	.	.	.
.	.	.	.	32cc#/	.
8D\J)	.	.	.	32bn/	.
.	.	.	.	32g#/	.
.	.	16e#\Jk	.	32e#/	.
.	.	.	.	32ee#/JJJ	.
(24c#\LL	.	8.an\L	.	32an/LLL	.
.	.	.	.	32aa/	.
24E#\	.	.	.	.	.
.	.	.	.	32b#/	.
24B\J	.	.	.	.	.
.	.	.	.	32dd/	.
8C#\J)	.	.	.	32cc#/	.
.	.	.	.	32bn/	.
.	.	16g#\Jk	.	32g#/	.
.	.	.	.	32gg#/JJJ	.
=2	=2	=2	=2	=2	=2
(24A\LL	.	8.c#\L	.	32c#/LLL	.
.	.	.	.	32cc#/	.
24C#\	.	.	.	.	.
.	.	.	.	32g#/	.
24F#\J	.	.	.	.	.
.	.	.	.	32b/	.
8FF#\J)	.	.	.	32a/	.
.	.	.	.	32f#/	.
.	.	16d\Jk	.	32d/	.
.	.	.	.	32dd/JJJ	.
(24A\LL	.	8.c#\L	.	32c#/LLL	.
.	.	.	.	32cc#/	.
24C#\	.	.	.	.	.
.	.	.	.	32g#/	.
24F#\J)	.	.	.	.	.
.	.	.	.	32b/	.
8AA\J	.	.	.	32a/	.
.	.	.	.	32g#/	.
.	.	16f#\Jk	.	32f#/	.
.	.	.	.	32ff#/JJJ	.
(24d\LL	.	8.f#\L	.	32f#/LLL	.
.	.	.	.	32ff#/	.
24G#\	.	.	.	.	.
.	.	.	.	32a#/	.
24B\J	.	.	.	.	.
.	.	.	.	32cc#/	.
8D\J)	.	.	.	32bn/	.
.	.	.	.	32g#/	.
.	.	16e#\Jk	.	32e#/	.
.	.	.	.	32ee#/JJJ	.
(24c#\LL	.	8.an\L	.	32an/LLL	.
.	.	.	.	32aa/	.
24E#\	.	.	.	.	.
.	.	.	.	32b#/	.
24B\J	.	.	.	.	.
.	.	.	.	32dd/	.
8C#\J)	.	.	.	32cc#/	.
.	.	.	.	32bn/	.
.	.	16g#\Jk	.	32g#/	.
.	.	.	.	32gg#/JJJ	.
=3	=3	=3	=3	=3	=3
(24a\LL	.	8.cc#\L	.	32cc#/LLL	.
.	.	.	.	32ccc#/	.
24d\	.	.	.	.	.
.	.	.	.	32gg#/	.
24f#\J	.	.	.	.	.
.	.	.	.	32bb/	.
8A\J)	.	.	.	32aa/	.
.	.	.	.	32ff#/	.
.	.	16dd#\Jk	.	32dd#/	.
.	.	.	.	32ddd#/JJJ	.
(24g#\LL	.	8.cc#\L	.	32cc#/LLL	.
.	.	.	.	32ccc#/	.
24d\	.	.	.	.	.
.	.	.	.	32ee#/	.
24f#\J	.	.	.	.	.
.	.	.	.	32gg#/	.
8G#\J)	.	.	.	32ff#/	.
.	.	.	.	32dd#/	.
.	.	16b#\Jk	.	32b#/	.
.	.	.	.	32bb#/JJJ	.
(24gn\LL	.	8.bn\L	.	32bn/LLL	.
.	.	.	.	32bbn/	.
24c#\	.	.	.	.	.
.	.	.	.	32ff#/	.
24e\J	.	.	.	.	.
.	.	.	.	32aa/	.
8Gn\J)	.	.	.	32ggn/	.
.	.	.	.	32ee/	.
.	.	16cc#\Jk	.	32cc#/	.
.	.	.	.	32ccc#/JJJ	.
(24f#\LL	.	8.b\L	.	32b/LLL	.
.	.	.	.	32bb/	.
24c#\	.	.	.	.	.
.	.	.	.	32dd#/	.
24e\J	.	.	.	.	.
.	.	.	.	32ff#/	.
8F#\J)	.	.	.	32ee/	.
.	.	.	.	32cc#/	.
.	.	16a#\Jk	.	32a#/	.
.	.	.	.	32aa#/JJJ	.
=4	=4	=4	=4	=4	=4
(24fn\LL	.	8.a\L	.	32an/LLL	.
.	.	.	.	32aan/	.
24cn\	.	.	.	.	.
.	.	.	.	32ddn/	.
24e-\J	.	.	.	.	.
.	.	.	.	32ffn/	.
8Fn\J)	.	.	.	32ee-/	.
.	.	.	.	32ccn/	.
.	.	16b\Jk	.	32b/	.
.	.	.	.	32bb/JJJ	.
(24f\LL	.	8.a\L	.	32a/LLL	.
.	.	.	.	32aa/	.
24B\	.	.	.	.	.
.	.	.	.	32cc#/	.
24d\J	.	.	.	.	.
.	.	.	.	32een/	.
8F\J)	.	.	.	32ddn/	.
.	.	.	.	32b/	.
.	.	16g#\Jk	.	32g#/	.
.	.	.	.	32gg#/JJJ	.
(24d\LL	.	8.f#\L	.	32f#/LLL	.
.	.	.	.	32ff#/	.
24G#\	.	.	.	.	.
.	.	.	.	32a#/	.
24B\J	.	.	.	.	.
.	.	.	.	32cc#/	.
8D\J)	.	.	.	32bn/	.
.	.	.	.	32g#/	.
.	.	16e#\Jk	.	32e#/	.
.	.	.	.	32ee#/JJJ	.
(24B\LL	.	8.d\L	.	32d/LLL	.
.	.	.	.	32dd/	.
24C#\	.	.	.	.	.
.	.	.	.	32f##/	.
24E#\J)	.	.	.	.	.
.	.	.	.	32an/	.
8CC#\J	.	.	.	32g#/	.
.	.	.	.	32e/	.
.	.	16c#\Jk	.	32c#/	.
.	.	.	.	32cc#/JJJ	.
=5	=5	=5	=5	=5	=5
(24A\LL	.	8.c#\L	.	32c#/LLL	.
.	.	.	.	32cc#/	.
24C#\	.	.	.	.	.
.	.	.	.	32g#/	.
24F#\J)	.	.	.	.	.
.	.	.	.	32b/	.
8FF#\J	.	.	.	32a/	.
.	.	.	.	32f#/	.
.	.	16d\Jk	.	32d/	.
.	.	.	.	32dd/JJJ	.
(24A\LL	.	8.c#\L	.	32c#/LLL	.
.	.	.	.	32cc#/	.
24C#\	.	.	.	.	.
.	.	.	.	32g#/	.
24F#\J)	.	.	.	.	.
.	.	.	.	32b/	.
8AA\J	.	.	.	32a/	.
.	.	.	.	32g#/	.
.	.	16f#\Jk	.	32f#/	.
.	.	.	.	32ff#/JJJ	.
(24d\LL	.	8.f#\L	.	32f#/LLL	.
.	.	.	.	32ff#/	.
24G#\	.	.	.	.	.
.	.	.	.	32a#/	.
24B\J	.	.	.	.	.
.	.	.	.	32cc#/	.
8D\J)	.	.	.	32bn/	.
.	.	.	.	32g#/	.
.	.	16e#\Jk	.	32e#/	.
.	.	.	.	32ee#/JJJ	.
(24c#\LL	.	8.an\L	.	32an/LLL	.
.	.	.	.	32aan/	.
24E#\	.	.	.	.	.
.	.	.	.	32b#/	.
24B\J	.	.	.	.	.
.	.	.	.	32dd/	.
8C#\J)	.	.	.	32cc#/	.
.	.	.	.	32bn/	.
.	.	16g#\Jk	.	32g#/	.
.	.	.	.	32gg#/JJJ	.
=6	=6	=6	=6	=6	=6
(24A\LL	.	8.c#\L	.	32c#/LLL	.
.	.	.	.	32cc#/	.
24C#\	.	.	.	.	.
.	.	.	.	32g#/	.
24F#\J)	.	.	.	.	.
.	.	.	.	32b/	.
8FF#\J	.	.	.	32a/	.
.	.	.	.	32f#/	.
.	.	16d\Jk	.	32d/	.
.	.	.	.	32dd/JJJ	.
(24A\LL	.	8.c#\L	.	32c#/LLL	.
.	.	.	.	32cc#/	.
24C#\	.	.	.	.	.
.	.	.	.	32g#/	.
24F#\J)	.	.	.	.	.
.	.	.	.	32b/	.
8AA\J	.	.	.	32a/	.
.	.	.	.	32g#/	.
.	.	16f#\Jk	.	32f#/	.
.	.	.	.	32ff#/JJJ	.
(24fn\LL	.	8.a\L	.	32a/LLL	.
.	.	.	.	32aa/	.
24B\	.	.	.	.	.
.	.	.	.	32cc#/	.
24d\J	.	.	.	.	.
.	.	.	.	32ee/	.
8Fn\J)	.	.	.	32dd/	.
.	.	.	.	32b/	.
.	.	16g#\Jk	.	32g#/	.
.	.	.	.	32gg#/JJJ	.
(24e\LL	.	8.cc#\L	.	32cc#/LLL	.
.	.	.	.	32ccc#/	.
24G#\	.	.	.	.	.
.	.	.	.	32dd#/	.
24dn\J	.	.	.	.	.
.	.	.	.	32ff#/	.
8E\J)	.	.	.	32ee/	.
.	.	.	.	32ddn/	.
.	.	16b\Jk	.	32b/	.
.	.	.	.	32bb/JJJ	.
=7	=7	=7	=7	=7	=7
*clefG2	*clefG2	*	*	*	*
(24ccn/LL	.	8.ee\L	.	32ee/LLL	.
.	.	.	.	32eee/	.
24f#/	.	.	.	.	.
.	.	.	.	32bb/	.
24a/J	.	.	.	.	.
.	.	.	.	32ddd/	.
8cn/J)	.	.	.	32cccn/	.
.	.	.	.	32aa/	.
.	.	16ff#\Jk	.	32ff#/	.
.	.	.	.	32fff#/JJJ	.
(24b/LL	.	8.ee\L	.	32ee/LLL	.
.	.	.	.	32eee/	.
24f#/	.	.	.	.	.
.	.	.	.	32gg#/	.
24a/J	.	.	.	.	.
.	.	.	.	32bb/	.
8B/J)	.	.	.	32aa/	.
.	.	.	.	32ff#/	.
.	.	16dd#\Jk	.	32dd#/	.
.	.	.	.	32ddd#/JJJ	.
(24b-/LL	.	8.ddn\L	.	32ddn/LLL	.
.	.	.	.	32dddn/	.
24fn/	.	.	.	.	.
.	.	.	.	32ggn/	.
24a-/J	.	.	.	.	.
.	.	.	.	32bb-/	.
8B-/J)	.	.	.	32aa-/	.
.	.	.	.	32ffn/	.
.	.	16ee\Jk	.	32ee/	.
.	.	.	.	32eee/JJJ	.
(24an/LL	.	8.dd\L	.	32dd/LLL	.
.	.	.	.	32ddd/	.
24e/	.	.	.	.	.
.	.	.	.	32ff#/	.
24gn/J	.	.	.	.	.
.	.	.	.	32aa/	.
8An/J)	.	.	.	32ggn/	.
.	.	.	.	32ee/	.
.	.	16cc#\Jk	.	32cc#/	.
.	.	.	.	32ccc#/JJJ	.
=8	=8	=8	=8	=8	=8
(24a-/LL	.	8.ccn\L	.	32ccn/LLL	.
.	.	.	.	32cccn/	.
24e-/	.	.	.	.	.
.	.	.	.	32ffn/	.
24g-/J	.	.	.	.	.
.	.	.	.	32aa-/	.
8A-/J)	.	.	.	32gg-/	.
.	.	.	.	32ee-/	.
.	.	16dd\Jk	.	32ddn/	.
.	.	.	.	32ddd/JJJ	.
(24gn/LL	.	8.cc\L	.	32cc/LLL	.
.	.	.	.	32ccc/	.
24d/	.	.	.	.	.
.	.	.	.	32een/	.
24fn/J	.	.	.	.	.
.	.	.	.	32ggn/	.
8Gn/J)	.	.	.	32ffn/	.
.	.	.	.	32dd/	.
.	.	16b\Jk	.	32b/	.
.	.	.	.	32bb/JJJ	.
(24gn/LL	.	8.cc-\L	.	32cc-/LLL	.
.	.	.	.	32ccc-/	.
24d-/	.	.	.	.	.
.	.	.	.	32ee-/	.
24f-/J	.	.	.	.	.
.	.	.	.	32gg-/	.
8G/J)	.	.	.	32ff-/	.
.	.	.	.	32dd-/	.
.	.	16b-\Jk	.	32b-/	.
.	.	.	.	32bb-/JJJ	.
(24g-/LL	.	8.b-\L	.	32b-/LLL	.
.	.	.	.	32bb-/	.
24d-/	.	.	.	.	.
.	.	.	.	32ee-/	.
24f-/J	.	.	.	.	.
.	.	.	.	32gg-/	.
8G-/J)	.	.	.	32ff-/	.
.	.	.	.	32dd-/	.
.	.	16b-\Jk	.	32b-/	.
.	.	.	.	32bb-/JJJ	.
=9	=9	=9	=9	=9	=9
*clefF4	*clefF4	*	*	*	*
(24fn\LL	.	8.b-\L	.	32b-/LLL	.
.	.	.	.	32bb-/	.
24B-\	.	.	.	.	.
.	.	.	.	32ee/	.
24dn\J	.	.	.	.	.
.	.	.	.	32ggn/	.
8Fn\J)	.	.	.	32ffn/	.
.	.	.	.	32ddn/	.
.	.	16an\Jk	.	32an/	.
.	.	.	.	32aan/JJJ	.
(24f\LL	.	8.b--\L	.	32b--/LLL	.
.	.	.	.	32bb--/	.
24Bn\	.	.	.	.	.
.	.	.	.	32dd-/	.
24d\J	.	.	.	.	.
.	.	.	.	32ff-/	.
8F\J)	.	.	.	32ee--/	.
.	.	.	.	32cc-/	.
.	.	16a-\Jk	.	32a-/	.
.	.	.	.	32aa-/JJJ	.
(24f\LL	.	8.a-\L	.	32a-/LLL	.
.	.	.	.	32aa-/	.
24Gn\	.	.	.	.	.
.	.	.	.	32cc#/	.
24B\J	.	.	.	.	.
.	.	.	.	32ee-/	.
8F\J)	.	.	.	32ddn/	.
.	.	.	.	32bn/	.
.	.	16gn\Jk	.	32gn/	.
.	.	.	.	32ggn/JJJ	.
(24e-\LL	.	8.g\L	.	32g/LLL	.
.	.	.	.	32gg/	.
24G\	.	.	.	.	.
.	.	.	.	32dd/	.
24cn\J	.	.	.	.	.
.	.	.	.	32ffn/	.
8F\J)	.	.	.	32ee-/	.
.	.	.	.	32ddn/	.
.	.	16ccn\Jk	.	32ccn/	.
.	.	.	.	32cccn/JJJ	.
=10	=10	=10	=10	=10	=10
(24gn\LL	.	8.ccn\L	.	32ccn/LLL	.
.	.	.	.	32cccn/	.
24cn\	.	.	.	.	.
.	.	.	.	32ff#/	.
24e-\J	.	.	.	.	.
.	.	.	.	32aa-/	.
8Fn\J)	.	.	.	32ggn/	.
.	.	.	.	32ee-/	.
.	.	16bn\Jk	.	32bn/	.
.	.	.	.	32bbn/JJJ	.
(24g\LL	.	8.cc-\L	.	32cc-/LLL	.
.	.	.	.	32ccc-/	.
24d-\	.	.	.	.	.
.	.	.	.	32ee-/	.
24en\J	.	.	.	.	.
.	.	.	.	32ffn/	.
8F\J)	.	.	.	32een/	.
.	.	.	.	32dd-/	.
.	.	16b-\Jk	.	32b-/	.
.	.	.	.	32bb-/JJJ	.
(24g\LL	.	8.b-\L	.	32b-/LLL	.
.	.	.	.	32bb-/	.
24A\	.	.	.	.	.
.	.	.	.	32dd#/	.
24c#\J	.	.	.	.	.
.	.	.	.	32ffn/	.
8F\J)	.	.	.	32een/	.
.	.	.	.	32cc#/	.
.	.	16an\Jk	.	32an/	.
.	.	.	.	32aan/JJJ	.
(24fn\LL	.	8.a\L	.	32a/LLL	.
.	.	.	.	32aa/	.
24A\	.	.	.	.	.
.	.	.	.	32ee/	.
24dn\J	.	.	.	.	.
.	.	.	.	32ggn/	.
8F\J)	.	.	.	32ffn/	.
.	.	.	.	32ee/	.
.	.	16ddn\Jk	.	32ddn/	.
.	.	.	.	32dddn/JJJ	.
=11	=11	=11	=11	=11	=11
(24fn\LL	.	8.dd\L	.	32dd/LLL	.
.	.	.	.	32ddd/	.
24A\	.	.	.	.	.
.	.	.	.	32ee/	.
24e-\J	.	.	.	.	.
.	.	.	.	32ggn/	.
8Fn\J)	.	.	.	32ffn/	.
.	.	.	.	32ee-/	.
.	.	16ccn\Jk	.	32ccn/	.
.	.	.	.	32cccn/JJJ	.
(24d\LL	.	8.cc\L	.	32cc/LLL	.
.	.	.	.	32ccc/	.
24Fn\	.	.	.	.	.
.	.	.	.	32een/	.
24B-\J	.	.	.	.	.
.	.	.	.	32gg/	.
8BB-\J)	.	.	.	32ff/	.
.	.	.	.	32ddn/	.
.	.	16b-\Jk	.	32b-/	.
.	.	.	.	32bb-/JJJ	.
(24d\LL	.	8.b-\L	.	32b-/LLL	.
.	.	.	.	32bb-/	.
24F#\	.	.	.	.	.
.	.	.	.	32cc#/	.
24cn\J	.	.	.	.	.
.	.	.	.	32ee-/	.
8D\J)	.	.	.	32ddn/	.
.	.	.	.	32ccn/	.
.	.	16a\Jk	.	32a/	.
.	.	.	.	32aa/JJJ	.
(24B-\LL	.	8.a\L	.	32a/LLL	.
.	.	.	.	32aa/	.
24D\	.	.	.	.	.
.	.	.	.	32cc#/	.
24Gn\J	.	.	.	.	.
.	.	.	.	32ee-/	.
8GGn\J)	.	.	.	32ddn/	.
.	.	.	.	32bn/	.
.	.	16gn\Jk	.	32gn/	.
.	.	.	.	32ggn/JJJ	.
=12	=12	=12	=12	=12	=12
(24B-\LL	.	8.gn\L	.	32gn/LLL	.
.	.	.	.	32ggn/	.
24D\	.	.	.	.	.
.	.	.	.	32a/	.
24A-\J	.	.	.	.	.
.	.	.	.	32ccn/	.
8BB-\J)	.	.	.	32b-/	.
.	.	.	.	32a-/	.
.	.	16fn\Jk	.	32fn/	.
.	.	.	.	32ffn/JJJ	.
(24B-\LL	.	8.e\L	.	32e/LLL	.
.	.	.	.	32ee/	.
24D\	.	.	.	.	.
.	.	.	.	32an/	.
24A-\J	.	.	.	.	.
.	.	.	.	32cc/	.
8BB-\J)	.	.	.	32bn/	.
.	.	.	.	32a-/	.
.	.	16f\Jk	.	32f/	.
.	.	.	.	32ff/JJJ	.
(24A-\LL	.	8.f\L	.	32f/LLL	.
.	.	.	.	32ff/	.
24BB-\	.	.	.	.	.
.	.	.	.	32an/	.
24D\J)	.	.	.	.	.
.	.	.	.	32cc-/	.
8EE-\J	.	.	.	32b-/	.
.	.	.	.	32a-/	.
.	.	16f\Jk	.	32f/	.
.	.	.	.	32ff/JJJ	.
(24G-\LL	.	8.g-\L	.	32g-/LLL	.
.	.	.	.	32gg-/	.
24BB-\	.	.	.	.	.
.	.	.	.	32dd/	.
24E-\J	.	.	.	.	.
.	.	.	.	32ffn/	.
8EE-\J)	.	.	.	32ee-/	.
.	.	.	.	32b-/	.
.	.	16f#\Jk	.	32gn/	.
.	.	.	.	32gg/JJJ	.
=13	=13	=13	=13	=13	=13
(24A-/LL	f	8.g-\L	.	32g-/LLL	.
.	.	.	.	32gg-/	.
24AA/	.	.	.	.	.
.	.	.	.	32gn/	.
24D-/J	.	.	.	.	.
.	.	.	.	32b-/	.
8FF-/J)	.	.	.	32a-/	.
.	.	.	.	32g-/	.
.	.	16f-\Jk	.	32f-/	.
.	.	.	.	32ff-/JJJ	.
(24A-/LL	.	8.f-\L	.	32f-/LLL	.
.	.	.	.	32ff-/	.
24AA/	.	.	.	.	.
.	.	.	.	32gn/	.
24D-/J	.	.	.	.	.
.	.	.	.	32b-/	.
8FF-/J)	.	.	.	32a-/	.
.	.	.	.	32f-/	.
.	.	16A-\Jk	.	32A-/	.
.	.	.	.	32a-/JJJ	.
(24G-/LL	.	8.c-\L	.	32c-/LLL	.
.	.	.	.	32cc-/	.
24C-/	.	.	.	.	.
.	.	.	.	32fn/	.
24E-/J	.	.	.	.	.
.	.	.	.	32a-/	.
8GG-/J)	.	.	.	32g-/	.
.	.	.	.	32e-/	.
.	.	16c-\Jk	.	32c-/	.
.	.	.	.	32cc-/JJJ	.
(24G-/LL	.	8.B-\L	.	32B-/LLL	.
.	.	.	.	32b-/	.
24C-/	.	.	.	.	.
.	.	.	.	32fn/	.
24E-/J	.	.	.	.	.
.	.	.	.	32a-/	.
8GG-/J)	.	.	.	32g-/	.
.	.	.	.	32e-/	.
.	.	16c-\Jk	.	32c-/	.
.	.	.	.	32cc-/JJJ	.
=14	=14	=14	=14	=14	=14
(24G-/LL	.	8.cn\L	.	32cn/LLL	.
.	.	.	.	32ccn/	.
24BB-/	.	.	.	.	.
.	.	.	.	32fn/	.
24F-/J	.	.	.	.	.
.	.	.	.	32a-/	.
8GG-/J)	.	.	.	32g-/	.
.	.	.	.	32f-/	.
.	.	16c\Jk	.	32c/	.
.	.	.	.	32cc/JJJ	.
(24G-/LL	.	8.d-\L	.	32d-/LLL	.
.	.	.	.	32dd-/	.
24BB-/	.	.	.	.	.
.	.	.	.	32fn/	.
24F-/J	.	.	.	.	.
.	.	.	.	32a/	.
8GG-/J)	<	.	.	32g-/	.
.	.	.	.	32f-/	.
.	.	16dn\Jk	.	32dn/	.
.	.	.	.	32ddn/JJJ	.
(24F-/LL	.	8.d\L	.	32d/LLL	.
.	.	.	.	32dd/	.
24GG-/	.	.	.	.	.
.	.	.	.	32fn/	.
24BB-/J	.	.	.	.	.
.	.	.	.	32a-/	.
8CC-/J)	.	.	.	32g-/	.
.	.	.	.	32f-/	.
.	.	16d\Jk	.	32d/	.
.	.	.	.	32dd/JJJ	.
(24E-/LL	.	8.e-\L	.	32e-/LLL	.
.	.	.	.	32ee-/	.
24GG-/	.	.	.	.	.
.	.	.	.	32b-/	.
24C-/J	.	.	.	.	.
.	.	.	.	32dd-/	.
8CC-/J)	.	.	.	32cc-/	.
.	.	.	.	32g-/	.
.	.	16e-\Jk	.	32e-/	.
.	.	.	.	32ee-/JJJ	.
=15	=15	=15	=15	=15	=15
(24A-\LL	ff	8.e-\L	.	32e-/LLL	.
.	.	.	.	32ee-/	.
24C-\	.	.	.	.	.
.	.	.	.	32a-/	.
24E-\J	.	.	.	.	.
.	.	.	.	32dd-/	.
8FFn\J)	.	.	.	32cc-/	.
.	.	.	.	32a-/	.
.	.	16e-\Jk	.	32e-/	.
.	.	.	.	32ee-/JJJ	.
(24A-\LL	.	8.dn\L	.	32dn/LLL	.
.	.	.	.	32ddn/	.
24C-\	.	.	.	.	.
.	.	.	.	32b--/	.
24E-\J)	.	.	.	.	.
.	.	.	.	32dd-/	.
8FF\J	.	.	.	32cc-/	.
.	.	.	.	32a-/	.
.	.	16e-\Jk	.	32e-/	.
.	.	.	.	32ee-/JJJ	.
(24dn\LL	.	8.fn\L	.	32fn/LLL	.
.	.	.	.	32ffn/	.
24Fn\	.	.	.	.	.
.	.	.	.	32b-/	.
24B-\J	.	.	.	.	.
.	.	.	.	32ee-/	.
8BB-\J)	.	.	.	32ddn/	.
.	.	.	.	32b-/	.
.	.	16f\Jk	.	32f/	.
.	.	.	.	32ff/JJJ	.
(24d\LL	.	8.g-\L	.	32g-/LLL	.
.	.	.	.	32gg-/	.
24F\	.	.	.	.	.
.	.	.	.	32b-/	.
24B-\J	.	.	.	.	.
.	.	.	.	32ee-/	.
8BB-\J)	.	.	.	32ddn/	.
.	.	.	.	32b-/	.
.	.	16fn\Jk	.	32fn/	.
.	.	.	.	32ffn/JJJ	.
=16	=16	=16	=16	=16	=16
(24A-\LL	.	8.e-\L	.	32e-/LLL	.
.	.	.	.	32ee-/	.
24C-\	.	.	.	.	.
.	.	.	.	32a-/	.
24E-\J	.	.	.	.	.
.	.	.	.	32dd-/	.
8FFn\J)	.	.	.	32cc-/	.
.	.	.	.	32a-/	.
.	.	16e-\Jk	.	32e-/	.
.	.	.	.	32ee-/JJJ	.
(24A-\LL	.	8.dn\L	.	32dn/LLL	.
.	.	.	.	32ddn/	.
24C-\	.	.	.	.	.
.	.	.	.	32a/	.
24E-\J)	.	.	.	.	.
.	.	.	.	32dd-/	.
8FF\J	.	.	.	32cc-/	.
.	.	.	.	32a-/	.
.	.	16e-\Jk	.	32e-/	.
.	.	.	.	32ee-/JJJ	.
(24dn\LL	.	8.fn\L	.	32fn/LLL	.
.	.	.	.	32ffn/	.
24Fn\	.	.	.	.	.
.	.	.	.	32b-/	.
24B-\J	.	.	.	.	.
.	.	.	.	32ee-/	.
8BB-\J)	.	.	.	32ddn/	.
.	.	.	.	32b-/	.
.	.	16f\Jk	.	32f/	.
.	.	.	.	32ff/JJJ	.
(24d\LL	.	8.b-\L	.	32b-/LLL	.
.	.	.	.	32bb-/	.
24F\	.	.	.	.	.
.	.	.	.	32ee/	.
24B-\J	.	.	.	.	.
.	.	.	.	32gg-/	.
8BB-\J)	.	.	.	32ffn/	.
.	.	.	.	32ddn/	.
.	.	16b-\Jk	.	32b-/	.
.	.	.	.	32bb-/JJJ	.
=17	=17	=17	=17	=17	=17
(24A-\LL	p	8.e-\L	.	32e-/LLL	.
.	.	.	.	32ee-/	.
24C-\	.	.	.	.	.
.	.	.	.	32a-/	.
24E-\J)	.	.	.	.	.
.	.	.	.	32dd-/	.
8FFn\J	.	.	.	32cc-/	.
.	.	.	.	32a-/	.
.	.	16e-\Jk	.	32e-/	.
.	.	.	.	32ee-/JJJ	.
(24A-\LL	.	8.dn\L	.	32d/LLL	.
.	.	.	.	32ddn/	.
24C-\	.	.	.	.	.
.	.	.	.	32a-/	.
24E-\J)	.	.	.	.	.
.	.	.	.	32dd-/	.
8FF\J	.	.	.	32cc-/	.
.	.	.	.	32a-/	.
.	.	16e-\Jk	.	32e-/	.
.	.	.	.	32ee-/JJJ	.
(24dn\LL	.	8.fn\L	.	32fn/LLL	.
.	.	.	.	32ffn/	.
24Fn\	.	.	.	.	.
.	.	.	.	32b-/	.
24B-\J	.	.	.	.	.
.	.	.	.	32ee-/	.
8BB-\J)	.	.	.	32ddn/	.
.	.	.	.	32b-/	.
.	.	16f\Jk	.	32f/	.
.	.	.	.	32ff/JJJ	.
(24d\LL	.	8.g-\L	.	32g-/LLL	.
.	.	.	.	32gg-/	.
24F\	.	.	.	.	.
.	.	.	.	32b-/	.
24B-\J	.	.	.	.	.
.	.	.	.	32ee-/	.
8BB-\J)	.	.	.	32dd/	.
.	.	.	.	32b-/	.
.	.	16fn\Jk	.	32fn/	.
.	.	.	.	32ffn/JJJ	.
=18	=18	=18	=18	=18	=18
(24A-\LL	p	8.e-\L	.	32e-/LLL	.
.	.	.	.	32ee-/	.
24C-\	.	.	.	.	.
.	.	.	.	32a-/	.
24E-\J)	.	.	.	.	.
.	.	.	.	32dd-/	.
8FFn\J	.	.	.	32cc-/	.
.	.	.	.	32a-/	.
.	.	16d#\Jk	.	32e-/	.
.	.	.	.	32ee-/JJJ	.
(24A-\LL	.	8.dn\L	.	32dn/LLL	.
.	.	.	.	32ddn/	.
24C-\	.	.	.	.	.
.	.	.	.	32a-/	.
24E-\J)	.	.	.	.	.
.	.	.	.	32dd-/	.
8FF\J	.	.	.	32cc-/	.
.	.	.	.	32a-/	.
.	.	16e-\Jk	.	32e-/	.
.	.	.	.	32ee-/JJJ	.
(24dn\LL	.	8.fn\L	.	32fn/LLL	.
.	.	.	.	32ffn/	.
24Fn\	.	.	.	.	.
.	.	.	.	32b-/	.
24B-\J	.	.	.	.	.
.	.	.	.	32ee-/	.
8BB\J)	.	.	.	32ddn/	.
.	.	.	.	32b-/	.
.	.	16f\Jk	.	32f/	.
.	.	.	.	32ff/JJJ	.
(24Bn\LL	.	8.e#\L	.	32e#/LLL	.
.	.	.	.	32ee#/	.
24C#\	.	.	.	.	.
.	.	.	.	32b#/	.
24E#\J)	.	.	.	.	.
.	.	.	.	32dd/	.
8GG#\J	.	.	.	32cc#/	.
.	.	.	.	32bn/	.
.	.	16c#\Jk	.	32c#/	.
.	.	.	.	32cc#/JJJ	.
=19	=19	=19	=19	=19	=19
(24An\LL	.	8.c#\L	.	32c#/LLL	.
.	.	.	.	32cc#/	.
24C#\	.	.	.	.	.
.	.	.	.	32g#/	.
24F#\J)	.	.	.	.	.
.	.	.	.	32b/	.
8FF#\J	.	.	.	32a/	.
.	.	.	.	32f#/	.
.	.	16d\Jk	.	32d/	.
.	.	.	.	32dd/JJJ	.
(24A\LL	.	8.c#\L	.	32c#/LLL	.
.	.	.	.	32cc#/	.
24C#\	.	.	.	.	.
.	.	.	.	32g#/	.
24F#\J	.	.	.	.	.
.	.	.	.	32b/	.
8AA\J)	.	.	.	32a/	.
.	.	.	.	32g#/	.
.	.	16f#\Jk	.	32f#/	.
.	.	.	.	32ff#/JJJ	.
(24d\LL	.	8.f#\L	.	32f#/LLL	.
.	.	.	.	32ff#/	.
24G#\	.	.	.	.	.
.	.	.	.	32a#/	.
24B\J	.	.	.	.	.
.	.	.	.	32cc#/	.
8D\J)	.	.	.	32bn/	.
.	.	.	.	32g#/	.
.	.	16e#\Jk	.	32e#/	.
.	.	.	.	32ee#/JJJ	.
(24c#\LL	.	8.an\L	.	32a/LLL	.
.	.	.	.	32aa/	.
24E#\	.	.	.	.	.
.	.	.	.	32b#/	.
24B\J	.	.	.	.	.
.	.	.	.	32dd/	.
8C#\J)	.	.	.	32cc#/	.
.	.	.	.	32b/	.
.	.	16g#\Jk	.	32g#/	.
.	.	.	.	32gg#/JJJ	.
=20	=20	=20	=20	=20	=20
(24A\LL	.	8.c#\L	.	32c#/LLL	.
.	.	.	.	32cc#/	.
24C#\	.	.	.	.	.
.	.	.	.	32g#/	.
24F#\J	.	.	.	.	.
.	.	.	.	32b/	.
8FF#\J)	.	.	.	32a/	.
.	.	.	.	32f#/	.
.	.	16d\Jk	.	32d/	.
.	.	.	.	32dd/JJJ	.
(24A\LL	.	8.c#\L	.	32c#/LLL	.
.	.	.	.	32cc#/	.
24C#\	.	.	.	.	.
.	.	.	.	32g#/	.
24F#\J	.	.	.	.	.
.	.	.	.	32b/	.
8AA\J)	.	.	.	32a/	.
.	.	.	.	32g#/	.
.	.	16f#\Jk	.	32f#/	.
.	.	.	.	32ff#/JJJ	.
(24fn\LL	.	8.a\L	.	32a/LLL	.
.	.	.	.	32aa/	.
24B\	.	.	.	.	.
.	.	.	.	32cc#/	.
24d\J	.	.	.	.	.
.	.	.	.	32ee/	.
8Fn\J)	.	.	.	32dd/	.
.	.	.	.	32b/	.
.	.	16g#\Jk	.	32g#/	.
.	.	.	.	32gg#/JJJ	.
(24e\LL	.	8.cc#\L	.	32cc#/LLL	.
.	.	.	.	32ccc#/	.
24G#\	.	.	.	.	.
.	.	.	.	32dd#/	.
24dn\J	.	.	.	.	.
.	.	.	.	32ff#/	.
8E\J)	.	.	.	32ee/	.
.	.	.	.	32ddn/	.
.	.	16b\Jk	.	32b/	.
.	.	.	.	32bb/JJJ	.
=21	=21	=21	=21	=21	=21
(24gn\LL	.	8.b\L	.	32b/LLL	.
.	.	.	.	32bb/	.
24c#\	.	.	.	.	.
.	.	.	.	32dd#/	.
24e\J	.	.	.	.	.
.	.	.	.	32ff#/	.
8Gn\J)	.	.	.	32ee/	.
.	.	.	.	32cc#/	.
.	.	16a#\Jk	.	32a#/	.
.	.	.	.	32aa#/JJJ	.
(24f#\LL	.	8.ddn\L	.	32ddn/LLL	.
.	.	.	.	32ddd/	.
24A#\	.	.	.	.	.
.	.	.	.	32ee#/	.
24en\J	.	.	.	.	.
.	.	.	.	32ggn/	.
8F#\J)	.	.	.	32ff#/	.
.	.	.	.	32een/	.
.	.	16cc#\Jk	.	32cc#/	.
.	.	.	.	32ccc#/JJJ	.
*clefG2	*clefG2	*	*	*	*
(24an/LL	.	8.cc#\L	.	32cc#/LLL	.
.	.	.	.	32ccc#/	.
24d#/	.	.	.	.	.
.	.	.	.	32ee#/	.
24f#/J	.	.	.	.	.
.	.	.	.	32gg#/	.
8An/J)	.	.	.	32ff#/	.
.	.	.	.	32dd#/	.
.	.	16b#\Jk	.	32b#/	.
.	.	.	.	32bb#/JJJ	.
(24b#/LL	.	8.ee#\L	.	32ee#/LLL	.
.	.	.	.	32eee#/	.
24f#/	.	.	.	.	.
.	.	.	.	32gg#/	.
24a/J	.	.	.	.	.
.	.	.	.	32bbn/	.
8B#/J)	.	.	.	32aa/	.
.	.	.	.	32gg#/	.
.	.	16ff#\Jk	.	32ff#/	.
.	.	.	.	32fff#/JJJ	.
=22	=22	=22	=22	=22	=22
24ff#/LL	ff	8.gg#\L	.	32gg#/LLL	.
.	.	.	.	32ggg#/	.
(24a/	.	.	.	.	.
.	.	.	.	32ddd/	.
24ccn/J	.	.	.	.	.
.	.	.	.	32fffn/	.
8e-/J)	.	.	.	32eee-/	.
.	.	.	.	32cccn/	.
.	.	16aa\Jk	.	32aa/	.
.	.	.	.	32aaa/JJJ	.
24ff#/LL	.	8.gg#\L	.	32gg#/LLL	.
.	.	.	.	32ggg#/	.
(24a/	.	.	.	.	.
.	.	.	.	32dddn/	.
24cc/J	.	.	.	.	.
.	.	.	.	32fff/	.
8e-/J)	.	.	.	32eee-/	.
.	.	.	.	32ccc/	.
.	.	16aa\Jk	.	32aa/	.
.	.	.	.	32aaa/JJJ	.
(24ff#/LL	.	8.gg#\L	.	32gg#/LLL	.
.	.	.	.	32ggg#/	.
24a/	.	.	.	.	.
.	.	.	.	32ccc#/	.
24ccn/J	.	.	.	.	.
.	.	.	.	32eeen/	.
8dn/J)	.	.	.	32dddn/	.
.	.	.	.	32cccn/	.
.	.	16aa\Jk	.	32aa/	.
.	.	.	.	32aaa/JJJ	.
(24ff#/LL	.	8.gg#\L	.	32gg#/LLL	.
.	.	.	.	32ggg#/	.
24a/	.	.	.	.	.
.	.	.	.	32ccc#/	.
24cc/J	.	.	.	.	.
.	.	.	.	32eee/	.
8d/J)	.	.	.	32ddd/	.
.	.	.	.	32cccn/	.
.	.	16aa\Jk	.	32aa/	.
.	.	.	.	32aaa/JJJ	.
=23	=23	=23	=23	=23	=23
(24ff#/LL	.	8.aa\L	.	32aa/LLL	.
.	.	.	.	32aaa/	.
24a/	.	.	.	.	.
.	.	.	.	32eee#/	.
24cc#/J	.	.	.	.	.
.	.	.	.	32ggg#/	.
8c#/J)	.	.	.	32fff#/	.
.	.	.	.	32ccc#/	.
.	.	16aa\Jk	.	32aa/	.
.	.	.	.	32aaa/JJJ	.
(24een/LL	.	8.gg#\L	.	32gg#/LLL	.
.	.	.	.	32ggg#/	.
24g#/	.	.	.	.	.
.	.	.	.	32ddd#/	.
24cc#/J	.	.	.	.	.
.	.	.	.	32fff#/	.
8c#/J)	.	.	.	32eeen/	.
.	.	.	.	32ccc#/	.
.	.	16gg#\Jk	.	32gg#/	.
.	.	.	.	32ggg#/JJJ	.
(24cc#/LL	.	8.ee\L	.	32ee/LLL	.
.	.	.	.	32eee/	.
24e/	.	.	.	.	.
.	.	.	.	32bb/	.
24a/J	.	.	.	.	.
.	.	.	.	32dddn/	.
8A/J)	.	.	.	32ccc#/	.
.	.	.	.	32aa/	.
.	.	16ee\Jk	.	32ee/	.
.	.	.	.	32eee/JJJ	.
(24a/LL	.	8.cc#\L	.	32cc#/LLL	.
.	.	.	.	32ccc#/	.
24c#/	.	.	.	.	.
.	.	.	.	32gg#/	.
24f#/J	.	.	.	.	.
.	.	.	.	32bb/	.
8F#/J)	.	.	.	32aa/	.
.	.	.	.	32ff#/	.
.	.	16cc#\Jk	.	32cc#/	.
.	.	.	.	32ccc#/JJJ	.
=24	=24	=24	=24	=24	=24
*clefF4	*clefF4	*	*	*	*
(24e\LL	.	8.g#\L	.	32g#/LLL	.
.	.	.	.	32gg#/	.
24G#\	.	.	.	.	.
.	.	.	.	32dd#/	.
24c#\J	.	.	.	.	.
.	.	.	.	32ff#/	.
8C#\J)	.	.	.	32ee/	.
.	.	.	.	32cc#/	.
.	.	16g#\Jk	.	32g#/	.
.	.	.	.	32gg#/JJJ	.
(24dn\LL	.	8.f#\L	.	32f#/LLL	.
.	.	.	.	32ff#/	.
24F#\	.	.	.	.	.
.	.	.	.	32cc#/	.
24A\J	.	.	.	.	.
.	.	.	.	32ee/	.
8D\J)	.	.	.	32ddn/	.
.	.	.	.	32a/	.
.	.	16f#\Jk	.	32f#/	.
.	.	.	.	32ff#/JJJ	.
(24c#\LL	.	8.e\L	.	32e/LLL	.
.	.	.	.	32ee/	.
24E\	.	.	.	.	.
.	.	.	.	32b/	.
24A\J	.	.	.	.	.
.	.	.	.	32dd/	.
8AA\J)	.	.	.	32cc#/	.
.	.	.	.	32a/	.
.	.	16e\Jk	.	32e/	.
.	.	.	.	32ee/JJJ	.
(24B\LL	.	8.d\L	.	32d/LLL	.
.	.	.	.	32dd/	.
24D\	.	.	.	.	.
.	.	.	.	32a/	.
24Gn\J	.	.	.	.	.
.	.	.	.	32cc#/	.
8BB\J)	.	.	.	32b/	.
.	.	.	.	32gn/	.
.	.	16d\Jk	.	32d/	.
.	.	.	.	32dd/JJJ	.
=25	=25	=25	=25	=25	=25
(24A/LL	>	8.c#\L	.	32c#/LLL	.
.	.	.	.	32cc#/	.
24AA/	.	.	.	.	.
.	.	.	.	32g#/	.
24C#/J	.	.	.	.	.
.	.	.	.	32b/	.
8CC#/J)	.	.	.	32a/	.
.	.	.	.	32f#/	.
.	.	16c#\Jk	.	32c#/	.
.	.	.	.	32cc#/JJJ	.
(24A/LL	>	8.c#\L	.	32c#/LLL	.
.	.	.	.	32cc#/	.
24AA/	.	.	.	.	.
.	.	.	.	32g#/	.
24C#/J	.	.	.	.	.
.	.	.	.	32b/	.
8CC#/J)	.	.	.	32a/	.
.	.	.	.	32f#/	.
.	.	16c#\Jk	.	32c#/	.
.	.	.	.	32cc#/JJJ	.
(24G#/LL	>	8.c#\L	.	32c#/LLL	.
.	.	.	.	32cc#/	.
24AA/	.	.	.	.	.
.	.	.	.	32g#/	.
24C#/J	.	.	.	.	.
.	.	.	.	32b/	.
8CC#/J)	.	.	.	32a/	.
.	.	.	.	32f#/	.
.	.	16c#\Jk	.	32c#/	.
.	.	.	.	32cc#/JJJ	.
(24F#/LL	>	8.c#\L	.	32c#/LLL	.
.	.	.	.	32cc#/	.
24AA/	.	.	.	.	.
.	.	.	.	32g#/	.
24C#/J	.	.	.	.	.
.	.	.	.	32b/	.
8CC#/J)	.	.	.	32a/	.
.	.	.	.	32f#/	.
.	.	16c#\Jk	.	32c#/	.
.	.	.	.	32cc#/JJJ	.
=26	=26	=26	=26	=26	=26
(24F#/LL	>	8.c#\L	.	32c#/LLL	.
.	.	.	.	32cc#/	.
24GG#/	.	.	.	.	.
.	.	.	.	32f##/	.
24C#/J	.	.	.	.	.
.	.	.	.	32a/	.
8CC#/J)	.	.	.	32g#/	.
.	.	.	.	32f#/	.
.	.	16c#\Jk	.	32c#/	.
.	.	.	.	32cc#/JJJ	.
(24F#/LL	>	8.c#\L	.	32c#/LLL	.
.	.	.	.	32cc#/	.
24GG#/	.	.	.	.	.
.	.	.	.	32f##/	.
24C#/J	.	.	.	.	.
.	.	.	.	32a/	.
8CC#/J)	.	.	.	32g#/	.
.	.	.	.	32f#/	.
.	.	16c#\Jk	.	32c#/	.
.	.	.	.	32cc#/JJJ	.
(24E#/LL	>	8.c#\L	.	32c#/LLL	.
.	.	.	.	32cc#/	.
24GG#/	.	.	.	.	.
.	.	.	.	32f##/	.
24C#/J	.	.	.	.	.
.	.	.	.	32a/	.
8CC#/J)	.	.	.	32g#/	.
.	.	.	.	32e#/	.
.	.	16c#\Jk	.	32c#/	.
.	.	.	.	32cc#/JJJ	.
(24E#/LL	>	8.c#\L	.	32c#/LLL	.
.	.	.	.	32cc#/	.
24GG#/	.	.	.	.	.
.	.	.	.	32f##/	.
24C#/J	.	.	.	.	.
.	.	.	.	32a/	.
8CC#/J)	.	.	.	32g#/	.
.	.	.	.	32e#/	.
.	.	16c#\Jk	.	32c#/	.
.	.	.	.	32cc#/JJJ	.
=27	=27	=27	=27	=27	=27
(24A/LL	p	8.c#\L	.	32c#/LLL	.
.	.	.	.	32cc#/	.
24C#/	.	.	.	.	.
.	.	.	.	32g#/	.
24F#/J	.	.	.	.	.
.	.	.	.	32b/	.
8FF#/J)	.	.	.	32a/	.
.	.	.	.	32f#/	.
.	.	16c#\Jk	.	32c#/	.
.	.	.	.	32cc#/JJJ	.
(24A/LL	.	8.c#\L	.	32c#/LLL	.
.	.	.	.	32cc#/	.
24C#/	.	.	.	.	.
.	.	.	.	32g#/	.
24F#/J	.	.	.	.	.
.	.	.	.	32b/	.
8FF#/J)	.	.	.	32a/	.
.	.	.	.	32f#/	.
.	.	16c#\Jk	.	32c#/	.
.	.	.	.	32cc#/JJJ	.
(24A/LL	.	8.c#\L	.	32c#/LLL	.
.	.	.	.	32cc#/	.
24C#/	.	.	.	.	.
.	.	.	.	32g#/	.
24F#/J	.	.	.	.	.
.	.	.	.	32b/	.
8FF#/J)	.	.	.	32a/	.
.	.	.	.	32f#/	.
.	.	16c#\Jk	.	32c#/	.
.	.	.	.	32cc#/JJJ	.
(24A/LL	.	8.c#\L	.	32c#/LLL	.
.	.	.	.	32cc#/	.
24C#/	.	.	.	.	.
.	.	.	.	32g#/	.
24F#/J	.	.	.	.	.
.	.	.	.	32b/	.
8FF#/J)	.	.	.	32a/	.
.	.	.	.	32f#/	.
.	.	16c#\Jk	.	32c#/	.
.	.	.	.	32cc#/JJJ	.
=28	=28	=28	=28	=28	=28
(24F#/LL	.	8.d\L	.	32d/LLL	.
.	.	.	.	32dd/	.
24FF#/	.	.	.	.	.
.	.	.	.	32a#/	.
24BB/J	.	.	.	.	.
.	.	.	.	32cc#/	.
8BBB/J)	.	.	.	32b/	.
.	.	.	.	32f#/	.
.	.	16d\Jk	.	32d/	.
.	.	.	.	32dd/JJJ	.
(24F#/LL	<	8.d\L	.	32d/LLL	.
.	.	.	.	32dd/	.
24FF#/	.	.	.	.	.
.	.	.	.	32a#/	.
24BB/J	.	.	.	.	.
.	.	.	.	32cc#/	.
8BBB/J)	.	.	.	32b/	.
.	.	.	.	32f#/	.
.	.	16d\Jk	.	32d/	.
.	.	.	.	32dd/JJJ	.
(24F#/LL	.	8.d\L	.	32d/LLL	.
.	.	.	.	32dd/	.
24FF#/	.	.	.	.	.
.	.	.	.	32a/	.
24BB/J	.	.	.	.	.
.	.	.	.	32cc#/	.
8BBB/J)	.	.	.	32b/	.
.	.	.	.	32f#/	.
.	.	16d\Jk	.	32d/	.
.	.	.	.	32dd/JJJ	.
(24F#/LL	>	8.f#\L	.	32f#/LLL	.
.	.	.	.	32ff#/	.
24FF#/	.	.	.	.	.
.	.	.	.	32a/	.
24BB/J	.	.	.	.	.
.	.	.	.	32cc#/	.
8BBB/J)	.	.	.	32b/	.
.	.	.	.	32f#/	.
.	.	16d\Jk	.	32d/	.
.	.	.	.	32dd/JJJ	.
=29	=29	=29	=29	=29	=29
(24A#/LL	pp	8.c#\L	.	32c#/LLL	.
.	.	.	.	32cc#/	.
24C#/	.	.	.	.	.
.	.	.	.	32g#/	.
24F#/J	.	.	.	.	.
.	.	.	.	32b/	.
8FF#/J)	.	.	.	32a#/	.
.	.	.	.	32f#/	.
.	.	16c#\Jk	.	32c#/	.
.	.	.	.	32cc#/JJJ	.
(24A#/LL	.	8.c#\L	.	32c#/LLL	.
.	.	.	.	32cc#/	.
24C#/	.	.	.	.	.
.	.	.	.	32g#/	.
24F#/J	.	.	.	.	.
.	.	.	.	32b/	.
8FF#/J)	.	.	.	32a#/	.
.	.	.	.	32f#/	.
.	.	16c#\Jk	.	32c#/	.
.	.	.	.	32cc#/JJJ	.
(24A#/LL	.	8.c#\L	.	32c#/LLL	.
.	.	.	.	32cc#/	.
24C#/	.	.	.	.	.
.	.	.	.	32g#/	.
24F#/J	.	.	.	.	.
.	.	.	.	32b/	.
8FF#/J)	.	.	.	32a#/	.
.	.	.	.	32f#/	.
.	.	16c#\Jk	.	32c#/	.
.	.	.	.	32cc#/JJJ	.
(24A#/LL	.	8.c#\L	.	32c#/LLL	.
.	.	.	.	32cc#/	.
24C#/	.	.	.	.	.
.	.	.	.	32g#/	.
24F#/J	.	.	.	.	.
.	.	.	.	32b/	.
8FF#/J)	.	.	.	32a#/	.
.	.	.	.	32f#/	.
.	.	16c#\Jk	.	32c#/	.
.	.	.	.	32cc#/JJJ	.
=30	=30	=30	=30	=30	=30
(24F#/LL	.	8.d#\L	.	32d#/LLL	.
.	.	.	.	32dd#/	.
24FF#/	.	.	.	.	.
.	.	.	.	32a#/	.
24BB/J	.	.	.	.	.
.	.	.	.	32cc#/	.
8BBB/J)	<	.	.	32b/	.
.	.	.	.	32f#/	.
.	.	16d#\Jk	.	32d#/	.
.	.	.	.	32dd#/JJJ	.
(24F#/LL	.	8.d#\L	.	32d#/LLL	.
.	.	.	.	32dd#/	.
24FF#/	.	.	.	.	.
.	.	.	.	32a#/	.
24BB/J	.	.	.	.	.
.	.	.	.	32cc#/	.
8BBB/J)	.	.	.	32b/	.
.	.	.	.	32f#/	.
.	.	16d#\Jk	.	32d#/	.
.	.	.	.	32dd#/JJJ	.
(24F#/LL	.	8.d#\L	.	32d#/LLL	.
.	.	.	.	32dd#/	.
24FF#/	.	.	.	.	.
.	.	.	.	32a#/	.
24BB/J	.	.	.	.	.
.	.	.	.	32cc#/	.
8BBB/J)	.	.	.	32b/	.
.	.	.	.	32f#/	.
.	.	16d#\Jk	.	32d#/	.
.	.	.	.	32dd#/JJJ	.
(24F#/LL	>	8.f#\L	.	32f#/LLL	.
.	.	.	.	32ff#/	.
24FF#/	.	.	.	.	.
.	.	.	.	32a#/	.
24BB/J	.	.	.	.	.
.	.	.	.	32cc#/	.
8BBB/J)	.	.	.	32b/	.
.	.	.	.	32f#/	.
.	.	16d#\Jk	.	32d#/	.
.	.	.	.	32dd#/JJJ	.
=31	=31	=31	=31	=31	=31
(24A#/LL	.	8.c#\L	.	32c#/LLL	.
.	.	.	.	32cc#/	.
24C#/	.	.	.	.	.
.	.	.	.	32g#/	.
24F#/J	.	.	.	.	.
.	.	.	.	32b/	.
8FF#/J)	.	.	.	32a#/	.
.	.	.	.	32f#/	.
.	.	16c#\Jk	.	32c#/	.
.	.	.	.	32cc#/JJJ	.
(24A#/LL	.	8.c#\L	.	32c#/LLL	.
.	.	.	.	32cc#/	.
24C#/	.	.	.	.	.
.	.	.	.	32g#/	.
24F#/J	.	.	.	.	.
.	.	.	.	32b/	.
8FF#/J)	.	.	.	32a#/	.
.	.	.	.	32f#/	.
.	.	16c#\Jk	.	32c#/	.
.	.	.	.	32cc#/JJJ	.
(24A#/LL	.	8.c#\L	.	32c#/LLL	.
.	.	.	.	32cc#/	.
24C#/	.	.	.	.	.
.	.	.	.	32g#/	.
24F#/J	.	.	.	.	.
.	.	.	.	32b/	.
8FF#/J)	.	.	.	32a#/	.
.	.	.	.	32f#/	.
.	.	16c#\Jk	.	32c#/	.
.	.	.	.	32cc#/JJJ	.
(24A#/LL	.	8.c#\L	.	32c#/LLL	.
.	.	.	.	32cc#/	.
24C#/	.	.	.	.	.
.	.	.	.	32g#/	.
24F#/J	.	.	.	.	.
.	.	.	.	32b/	.
8FF#/J)	.	.	.	32a#/	.
.	.	.	.	32f#/	.
.	.	16c#\Jk	.	32c#/	.
.	.	.	.	32cc#/JJJ	.
=32	=32	=32	=32	=32	=32
(24An/LL	.	8.c#\L	.	32c#/LLL	.
.	.	.	.	32cc#/	.
24C#/	.	.	.	.	.
.	.	.	.	32g#/	.
24F#/J	.	.	.	.	.
.	.	.	.	32b/	.
8FF#/J)	.	.	.	32an/	.
.	.	.	.	32f#/	.
.	.	16c#\Jk	.	32c#/	.
.	.	.	.	32cc#/JJJ	.
(24A/LL	.	8.c#\L	.	32c#/LLL	.
.	.	.	.	32cc#/	.
24C#/	.	.	.	.	.
.	.	.	.	32g#/	.
24F#/J	.	.	.	.	.
.	.	.	.	32b/	.
8FF#/J)	.	.	.	32a/	.
.	.	.	.	32f#/	.
.	.	16c#\Jk	.	32c#/	.
.	.	.	.	32cc#/JJJ	.
(24A/LL	.	8.c#\L	.	32c#/LLL	.
.	.	.	.	32cc#/	.
24C#/	.	.	.	.	.
.	.	.	.	32g#/	.
24F#/J	.	.	.	.	.
.	.	.	.	32b/	.
8FF#/J)	.	.	.	32a/	.
.	.	.	.	32f#/	.
.	.	16c#\Jk	.	32c#/	.
.	.	.	.	32cc#/JJJ	.
(24A/LL	.	8.c#\L	.	32c#/LLL	.
.	.	.	.	32cc#/	.
24C#/	.	.	.	.	.
.	.	.	.	32g#/	.
24F#/J	.	.	.	.	.
.	.	.	.	32b/	.
8FF#/J)	.	.	.	32a/	.
.	.	.	.	32f#/	.
.	.	16c#\Jk	.	32c#/	.
.	.	.	.	32cc#/JJJ	.
=33	=33	=33	=33	=33	=33
(2AA\ 2E\ 2A\	.	2c#/ 2e/ 2cc#/	.	1r	.
4BB\ 4Gn\	.	4d/ 4gn/ 4b/	.	.	.
4C#\) 4G#\	.	4B/ 4c#/ 4fn/	.	.	.
=34	=34	=34	=34	=34	=34
.	.	e#/q	.	.	.
1FF#; 1C#;	.	1A 1c# 1f#	.	1r	.
==	==	==	==	==	==
*-	*-	*-	*-	*-	*-
